!!!COM: Gabriel Faure/
!!!CNT: Francais
!!!TXO: Francais
!!!OTL: "Prison"
!!!LYR: Verlaine
!!!OPR: 
!!!OPS: Op. 83
!!!ONM: No. 1
!!!ENC: Emily Thomas
!!!YOR: CD Sheet Music French Art Songs, The Ultimate Collection
!!!YOR: CD Sheet Music, LLC 2003
!!!ODT: 1894/
!!NB: Vocal melody and text encoded.
**kern	**silbe
=1	=1
*clefG2	*
*k[b-e-a-d-g-c-]	*
*M3/4	*
*MM[Quasi adagio]	*
4r	.
4r	.
8r	.
{8e-	{Le
=2	=2
4.b-	ciel
8b-	est
16g-	par
16g-	des-
16a-	-sus
16a-	le
=3	=3
4.b-	toit
8b-	si
8.ee-	bleu
16ccn	si
=4	=4
2b-	cal-
4b-}	-me,}
=5	=5
8r	.
{8e-	{Un
8.b-	ar-
16b-	-bre
16g-	par
16g-	des-
16a-	-sus
16a-	le
=6	=6
4.b-	toit
[8ee-	ber-
12ee-]	|
12dd-	-ce
12ccn	sa
=7	=7
2b-	pal-
4b-}	-me;}
=8	=8
4r	.
8r	.
{8b-	{La
8.b-	clo-
16b-	-che
=9	=9
16a-	dans
16a-	le
16f-	ciel
16f-	qu'on
4g-	voit
16g-	Dou-
16g-	-ce-
8a-	-ment
=10	=10
2b-	tin-
4b-}	-te,}
=11	=11
4r	.
8r	.
{16b-	{Un
16b-	ol-
8.ccn	-seau
16ccn	sur
=12	=12
8dd-	l'ar-
16cc-	-bre
16b-	qu'on
4a-	voit
8b-	Chan-
16a-	-te
16g-	sa
=13	=13
2.f	plain-
=14	=14
[4e-	-te.
8e-]}	|}
8r	.
8r	.
{8ee-	{Mon
=15	=15
[4een	Dieu,
8een]	|
8ccn	mon
8.ddn	Dieu
16ddn	la
=16	=16
16ccn	vie
16ccn	est
[8bn	la\,
8bn]}	|}
{[8ccn	{Simple
8ccn]	|
16b-	et
16an	tran-
=17	=17
2gn	-quil-
4en-}	le!}
=18	=18
8r	.
{[8ff	{Cet-
8ff]	|
16dd-	-te
16dd-	pai-
16ee-	-si-
16ee-	-ble
16ccn	rum-
16ccn	-eur-
=19	=19
4.dd-	-la\
[8ccn	Vient
8ccn]	|
16b-	de
16b-	la
=20	=20
2a-	vil-
4f}	-le.}
=21	=21
8r	.
{16ff#	{Qu'a
16ff#	stu
8.ddn	fait,
16ddn	o
8een	toi
16cc#	que
16cc#	voi-
=22	=22
[4ddn	-la\
8ddn]}	|}
16r	.
{16ddn	{Pleu-
8.ee-	-rant
16ee-	sans
=23	=23
2ff	ces-
4b-}	-se,}
=24	=24
4r	.
{[4cc-	{Dis,
8cc-]	|
16g-	qu'a
16g-	stu
=25	=25
[4f-	fait,
8f-]}	|}
8r	.
{[4f-	{toi
=26	=26
8f-]	|
16f-	que
16f-	voi-
[2e-	-la\,
=27	=27
4.e-]	|
8cc-	De
8.cc-	ta
16cc-	jeu-
=28	=28
2cc-	-nes-
[4b-	-se?
=29	=29
4b-_	|
8b-]}	|}
8r	.
4r	.
==	==
*-	*-
